images/menu.svg

<svg width="55" height="46" viewBox="0 0 55 46" xmlns="http://www.w3.org/2000/svg" xmlns:sketch="http://www.bohemiancoding.com/sketch/ns"><title>menu</title><desc>Created with Sketch.</desc><g sketch:type="MSShapeGroup" fill="#B6D5DB"><path d="M16.857 4h38v2h-38v-2z"/><path d="M16.857 22h38v2h-38v-2z"/><path d="M16.857 40h38v2h-38v-2z"/><path d="M5.857 0c-2.757 0-5 2.242-5 5 0 2.764 2.243 5 5 5 2.758 0 5-2.236 5-5 0-2.758-2.242-5-5-5"/><path d="M.857 23c0 2.764 2.243 5 5 5 2.758 0 5-2.236 5-5 0-2.758-2.242-5-5-5-2.757 0-5 2.242-5 5z"/><path d="M.857 41c0 2.764 2.243 5 5 5 2.758 0 5-2.236 5-5 0-2.758-2.242-5-5-5-2.757 0-5 2.242-5 5z"/></g></svg>

<?xml version="1.0" encoding="UTF-8" standalone="no"?>
<svg width="55px" height="46px" viewBox="0 0 55 46" version="1.1" xmlns="http://www.w3.org/2000/svg" xmlns:xlink="http://www.w3.org/1999/xlink" xmlns:sketch="http://www.bohemiancoding.com/sketch/ns">
    <!-- Generator: Sketch 3.2.1 (9971) - http://www.bohemiancoding.com/sketch -->
    <title>menu</title>
    <desc>Created with Sketch.</desc>
    <defs></defs>
    <g id="Page-1" stroke="none" stroke-width="1" fill="none" fill-rule="evenodd" sketch:type="MSPage">
        <g id="menu" sketch:type="MSLayerGroup" fill="#B6D5DB">
            <g id="Page-1" sketch:type="MSShapeGroup">
                <g id="Group-2569">
                    <path d="M16.857,4 L54.857,4 L54.857,6 L16.857,6 L16.857,4 L16.857,4 Z" id="Fill-2562"></path>
                    <path d="M16.857,22 L54.857,22 L54.857,24 L16.857,24 L16.857,22 L16.857,22 Z" id="Fill-2564"></path>
                    <path d="M16.857,40 L54.857,40 L54.857,42 L16.857,42 L16.857,40 L16.857,40 Z" id="Fill-2565"></path>
                    <path d="M5.857,0 C3.1,0 0.857,2.242 0.857,5 C0.857,7.764 3.1,10 5.857,10 C8.615,10 10.857,7.764 10.857,5 C10.857,2.242 8.615,0 5.857,0" id="Fill-2566"></path>
                    <path d="M0.857,23 C0.857,25.764 3.1,28 5.857,28 C8.615,28 10.857,25.764 10.857,23 C10.857,20.242 8.615,18 5.857,18 C3.1,18 0.857,20.242 0.857,23 Z" id="Fill-2567"></path>
                    <path d="M0.857,41 C0.857,43.764 3.1,46 5.857,46 C8.615,46 10.857,43.764 10.857,41 C10.857,38.242 8.615,36 5.857,36 C3.1,36 0.857,38.242 0.857,41 Z" id="Fill-2568"></path>
                </g>
            </g>
        </g>
    </g>
</svg>
